public/assets/images/icons/red/visibility-visible/radar.svg

<svg width="16" height="16" xmlns="http://www.w3.org/2000/svg" viewBox="0 0 16 16" shape-rendering="geometricPrecision" fill="#cb1800"><defs><mask id="a"><rect fill="#fff" width="100%" height="100%"/><path d="M12.997.858a4.809 4.809 0 0 0-4.253 2.563 4.81 4.81 0 0 0 8.506 0A4.812 4.812 0 0 0 12.997.858z" fill="#000"/></mask></defs><path d="M12.971 1.607c-1.315 0-2.454.74-3.029 1.825a3.425 3.425 0 0 0 6.058 0 3.43 3.43 0 0 0-3.029-1.825z"/><path mask="url(#a)" d="M7.999.97a6.99 6.99 0 0 0-2.429.44 1.517 1.517 0 0 0-.912-.309 1.53 1.53 0 0 0-1.502 1.81A7.014 7.014 0 0 0 .97 8.003 7.03 7.03 0 1 0 7.999.97zm5.589 6.66h-.889a1.528 1.528 0 0 0-1.131-1.027A3.823 3.823 0 0 0 8.5 4.211V2.418a5.61 5.61 0 0 1 5.088 5.212zm-3.786 0H8.5V4.988a3.056 3.056 0 0 1 2.242 1.674 1.523 1.523 0 0 0-.94.968zm-2.302 0H4.975A3.053 3.053 0 0 1 7.5 4.988V7.63zm0 1v2.382A3.06 3.06 0 0 1 5.004 8.63H7.5zm1 0h1.322c.146.393.445.712.829.876A3.055 3.055 0 0 1 8.5 11.013V8.63zm-4.456-4.6A1.526 1.526 0 0 0 6.18 2.702a5.55 5.55 0 0 1 1.32-.284v1.793A3.815 3.815 0 0 0 4.198 7.63H2.412a5.601 5.601 0 0 1 1.632-3.6zM2.43 8.63h1.793a3.82 3.82 0 0 0 3.276 3.159v1.793A5.613 5.613 0 0 1 2.43 8.63zm6.07 4.952v-1.793a3.826 3.826 0 0 0 2.979-2.184 1.524 1.524 0 0 0 1.201-.975h.89a5.614 5.614 0 0 1-5.07 4.952z"/></svg>

<?xml version="1.0"?><!DOCTYPE svg PUBLIC "-//W3C//DTD SVG 1.1//EN" "http://www.w3.org/Graphics/SVG/1.1/DTD/svg11.dtd"><svg width="16px" height="16px" xmlns="http://www.w3.org/2000/svg" viewBox="0 0 16 16" shape-rendering="geometricPrecision" fill="#cb1800"><defs><mask id="visibility-visible-path"><rect fill="#fff" width="100%" height="100%"/><path d="M12.997,0.858c-1.845,0-3.446,1.039-4.253,2.563c0.808,1.523,2.408,2.562,4.253,2.562 c1.844,0,3.444-1.039,4.253-2.562C16.441,1.897,14.841,0.858,12.997,0.858z" fill="#000"/></mask></defs><path display="inline" d="M12.971,1.607c-1.315,0-2.454,0.74-3.029,1.825 c0.575,1.085,1.715,1.825,3.029,1.825c1.314,0,2.453-0.74,3.029-1.825C15.424,2.348,14.284,1.607,12.971,1.607z" fill="#cb1800"/><path mask="url(#visibility-visible-path)" d="M7.999,0.97c-0.855,0-1.671,0.16-2.429,0.44C5.315,1.219,5.001,1.101,4.658,1.101 c-0.845,0-1.53,0.685-1.53,1.529c0,0.096,0.011,0.19,0.028,0.281C1.812,4.193,0.97,5.997,0.97,8.003 c0.001,3.881,3.147,7.025,7.029,7.027c3.883-0.002,7.031-3.146,7.031-7.027C15.03,4.116,11.882,0.97,7.999,0.97z M13.588,7.63 h-0.889c-0.167-0.515-0.594-0.913-1.131-1.027C11.067,5.325,9.904,4.395,8.5,4.211V2.418C11.239,2.665,13.402,4.872,13.588,7.63z M9.802,7.63H8.5V4.988c0.991,0.165,1.814,0.801,2.242,1.674C10.295,6.821,9.948,7.178,9.802,7.63z M7.5,7.63H4.975 C5.142,6.281,6.17,5.21,7.5,4.988V7.63z M7.5,8.63v2.382C6.254,10.805,5.262,9.857,5.004,8.63H7.5z M8.5,8.63h1.322 c0.146,0.393,0.445,0.712,0.829,0.876c-0.448,0.786-1.225,1.352-2.151,1.507V8.63z M4.044,4.03c0.188,0.083,0.395,0.13,0.614,0.13 c0.82,0,1.484-0.647,1.522-1.458C6.6,2.557,7.041,2.459,7.5,2.418v1.793C5.741,4.442,4.371,5.852,4.198,7.63H2.412 C2.506,6.226,3.109,4.963,4.044,4.03z M2.43,8.63h1.793c0.275,1.655,1.602,2.939,3.276,3.159v1.793 C4.846,13.343,2.728,11.264,2.43,8.63z M8.5,13.582v-1.793c1.327-0.175,2.438-1.014,2.979-2.184 c0.556-0.084,1.01-0.463,1.201-0.975h0.89C13.271,11.264,11.154,13.343,8.5,13.582z"/></svg>
